Papirus/64x64/apps/audio-recorder.svg

<?xml version="1.0" encoding="UTF-8" standalone="no"?>
<svg
   id="_图层_1"
   version="1.1"
   viewBox="0 0 64 64" width="64" height="64"
   sodipodi:docname="audio-recorder.svg"
   xml:space="preserve"
   inkscape:version="1.4 (e7c3feb100, 2024-10-09)"
   xmlns:inkscape="http://www.inkscape.org/namespaces/inkscape"
   xmlns:sodipodi="http://sodipodi.sourceforge.net/DTD/sodipodi-0.dtd"
   xmlns="http://www.w3.org/2000/svg"
   xmlns:svg="http://www.w3.org/2000/svg"><sodipodi:namedview
     id="namedview26"
     pagecolor="#505050"
     bordercolor="#eeeeee"
     borderopacity="1"
     inkscape:showpageshadow="0"
     inkscape:pageopacity="0"
     inkscape:pagecheckerboard="0"
     inkscape:deskcolor="#505050"
     inkscape:zoom="10.6875"
     inkscape:cx="32"
     inkscape:cy="32"
     inkscape:window-width="1920"
     inkscape:window-height="939"
     inkscape:window-x="0"
     inkscape:window-y="34"
     inkscape:window-maximized="1"
     inkscape:current-layer="_图层_1" /><!-- Generator: Adobe Illustrator 29.0.1, SVG Export Plug-In . SVG Version: 2.1.0 Build 192)  --><defs
     id="defs6"><style
       id="style1">
      .st0 {
        fill-opacity: .5;
      }

      .st0, .st1, .st2, .st3, .st4, .st5, .st6, .st7 {
        fill: #fff;
      }

      .st8 {
        fill: #133c9a;
      }

      .st2, .st9 {
        display: none;
      }

      .st3 {
        fill-opacity: .2;
      }

      .st4 {
        fill-opacity: .9;
      }

      .st10 {
        fill: #3370ff;
      }

      .st11 {
        fill: url(#_未命名的渐变_3);
      }

      .st12 {
        fill: url(#_未命名的渐变);
      }

      .st5 {
        fill-opacity: .3;
      }

      .st6 {
        fill-opacity: 0;
      }

      .st7 {
        fill-opacity: .7;
      }

      .st13 {
        fill: #00d6b9;
      }

      .st14 {
        fill: url(#_未命名的渐变_2);
      }
    </style><radialGradient
       id="_未命名的渐变"
       data-name="未命名的渐变"
       cx="123.9"
       cy="-40.2"
       fx="123.9"
       fy="-40.2"
       r="59.4"
       gradientTransform="translate(-26.8 25.5) scale(.6 -.7)"
       gradientUnits="userSpaceOnUse"><stop
         offset="0"
         stop-color="#db202e"
         id="stop1" /><stop
         offset="1"
         stop-color="#e01b24"
         id="stop2" /></radialGradient><radialGradient
       id="_未命名的渐变_2"
       data-name="未命名的渐变 2"
       cx="67.6"
       cy="26.8"
       fx="67.6"
       fy="26.8"
       r="105.2"
       gradientTransform="translate(-26.6 25.3) scale(.6 -.7)"
       gradientUnits="userSpaceOnUse"><stop
         offset="0"
         stop-color="#ffb648"
         id="stop3" /><stop
         offset="1"
         stop-color="#ff7800"
         stop-opacity="0"
         id="stop4" /></radialGradient><radialGradient
       id="_未命名的渐变_3"
       data-name="未命名的渐变 3"
       cx="61.7"
       cy="18.6"
       fx="61.7"
       fy="18.6"
       r="68"
       gradientTransform="translate(-26.8 25.8) scale(.6 -.7)"
       gradientUnits="userSpaceOnUse"><stop
         offset="0"
         stop-color="#c64600"
         id="stop5" /><stop
         offset="1"
         stop-color="#a51d2d"
         id="stop6" /></radialGradient></defs><path
     class="st1"
     d="M47.5,64.1H13.8c-7.6,0-13.8-6.3-13.8-13.8V13.7C0,6.2,6.2,0,13.7,0h36.6c7.5,0,13.7,6.2,13.7,13.7v36.6c0,7.5-6.2,13.7-13.7,13.7h-2.9.1Z"
     id="path6" /><g
     id="g26"
     transform="translate(-3.8198738e-7,-0.5)"><path
       style="opacity:0.2;fill-rule:evenodd"
       d="m 50.003906,21.941844 c -1.787259,-0.0054 -3.182826,1.543241 -2.992188,3.320312 0,0 0.280978,2.810708 -1.398436,6.49175 C 43.933866,35.434948 40.868282,39 32,39 23.13172,39 20.066134,35.434948 18.386718,31.753906 c -1.679415,-3.681042 -1.398437,-6.49175 -1.398437,-6.49175 0.184356,-1.80114 -1.256528,-3.353989 -3.066406,-3.304687 -1.540329,0.04223 -2.798235,1.244413 -2.910156,2.781251 0,0 -0.508719,4.188416 1.917968,9.507374 C 15.118413,39.043472 20.175652,43.922698 29,44.835938 V 53 H 18 c -1.656855,0 -3,1.343146 -3,3 0,1.656854 1.343145,3 3,3 h 28 c 1.656854,0 3,-1.343146 3,-3 0,-1.656854 -1.343146,-3 -3,-3 H 35 v -8.164062 c 8.824348,-0.91324 13.881586,-5.792466 16.070312,-10.589844 2.426688,-5.318958 1.91797,-9.507374 1.91797,-9.507374 -0.106752,-1.570973 -1.409788,-2.792142 -2.984376,-2.796876 z"
       id="path1" /><rect
       style="opacity:0.2"
       width="30"
       height="26"
       x="-37"
       y="-45"
       rx="12.501"
       ry="13"
       transform="matrix(0,-1,-1,0,0,0)"
       id="rect1" /><path
       style="fill:#503694;fill-rule:evenodd"
       d="m 50.003906,20.941844 c -1.787259,-0.0054 -3.182826,1.543241 -2.992188,3.320312 0,0 0.280978,2.810708 -1.398436,6.49175 C 43.933866,34.434948 40.868282,38 32,38 23.13172,38 20.066134,34.434948 18.386718,30.753906 c -1.679415,-3.681042 -1.398437,-6.49175 -1.398437,-6.49175 0.184356,-1.80114 -1.256528,-3.353989 -3.066406,-3.304687 -1.540329,0.04223 -2.798235,1.244413 -2.910156,2.781251 0,0 -0.508719,4.188416 1.917968,9.507374 C 15.118413,38.043472 20.175652,42.922698 29,43.835938 V 52 H 18 c -1.656855,0 -3,1.343146 -3,3 0,1.656854 1.343145,3 3,3 h 28 c 1.656854,0 3,-1.343146 3,-3 0,-1.656854 -1.343146,-3 -3,-3 H 35 v -8.164062 c 8.824348,-0.91324 13.881586,-5.792466 16.070312,-10.589844 2.426688,-5.318958 1.91797,-9.507374 1.91797,-9.507374 -0.106752,-1.570973 -1.409788,-2.792142 -2.984376,-2.796876 z"
       id="path2" /><rect
       style="fill:#75a3ff"
       width="30"
       height="26"
       x="-36"
       y="-45"
       rx="12.501"
       ry="13"
       transform="matrix(0,-1,-1,0,0,0)"
       id="rect2" /><path
       style="opacity:0.1;fill:#ffffff"
       d="M 32,6 C 24.798,6 19,11.574654 19,18.5 v 1 C 19,12.574654 24.798,7 32,7 c 7.202,0 13,5.574654 13,12.5 v -1 C 45,11.574654 39.202,6 32,6 Z"
       id="path3" /><path
       style="opacity:0.1;fill:#ffffff;fill-rule:evenodd"
       d="m 50.003906,20.941406 c -1.787259,-0.0054 -3.182825,1.543242 -2.992187,3.320313 0,0 0.0047,0.179342 0.0098,0.300781 0.185526,-1.464195 1.435491,-2.625768 2.982422,-2.621094 1.574588,0.0047 2.877623,1.225902 2.984375,2.796875 0,0 0.02009,0.279867 0.0332,0.59961 0.03797,-1.012524 -0.0332,-1.59961 -0.0332,-1.59961 -0.106752,-1.570973 -1.409787,-2.792141 -2.984375,-2.796875 z m -36.082031,0.01563 c -1.540329,0.04223 -2.798235,1.244412 -2.910156,2.78125 0,0 -0.07117,0.587086 -0.0332,1.59961 0.01311,-0.319743 0.0332,-0.59961 0.0332,-0.59961 0.111921,-1.536838 1.369827,-2.73902 2.910156,-2.78125 1.572244,-0.04283 2.862904,1.125543 3.054687,2.613281 0.0052,-0.127695 0.01172,-0.308593 0.01172,-0.308593 0.184356,-1.80114 -1.256528,-3.35399 -3.066406,-3.304688 z m 3.064453,4.052735 c -0.0015,0.08465 0.01075,0.166025 0.002,0.251953 0,0 -0.280977,2.811145 1.398438,6.492187 C 20.066135,35.434948 23.13172,39 32,39 c 8.868282,0 11.933865,-3.565052 13.613281,-7.246094 1.679414,-3.681042 1.398438,-6.492187 1.398438,-6.492187 -0.0083,-0.07781 0.0024,-0.15169 0,-0.228516 -0.0232,1.058254 -0.222848,3.143974 -1.398438,5.720703 C 43.933865,34.434948 40.868282,38 32,38 23.13172,38 20.066135,34.434948 18.386719,30.753906 17.203922,28.161382 17.007329,26.061011 16.986328,25.009766 Z M 18,52 c -1.656855,0 -3,1.343146 -3,3 0,0.171057 0.02328,0.336764 0.05078,0.5 C 15.289646,54.08213 16.514202,53 18,53 h 11 v -1 z m 17,0 v 1 h 11 c 1.485797,0 2.710354,1.08213 2.949219,2.5 C 48.976719,55.336764 49,55.171057 49,55 49,53.343146 47.656854,52 46,52 Z"
       id="path4" /></g></svg>

<svg xmlns="http://www.w3.org/2000/svg" width="64" height="64" version="1">
 <path style="opacity:0.2;fill-rule:evenodd" d="m 50.003906,21.941844 c -1.787259,-0.0054 -3.182826,1.543241 -2.992188,3.320312 0,0 0.280978,2.810708 -1.398436,6.49175 C 43.933866,35.434948 40.868282,39 32,39 23.13172,39 20.066134,35.434948 18.386718,31.753906 c -1.679415,-3.681042 -1.398437,-6.49175 -1.398437,-6.49175 0.184356,-1.80114 -1.256528,-3.353989 -3.066406,-3.304687 -1.540329,0.04223 -2.798235,1.244413 -2.910156,2.781251 0,0 -0.508719,4.188416 1.917968,9.507374 C 15.118413,39.043472 20.175652,43.922698 29,44.835938 L 29,53 18,53 c -1.656855,0 -3,1.343146 -3,3 0,1.656854 1.343145,3 3,3 l 28,0 c 1.656854,0 3,-1.343146 3,-3 0,-1.656854 -1.343146,-3 -3,-3 l -11,0 0,-8.164062 c 8.824348,-0.91324 13.881586,-5.792466 16.070312,-10.589844 2.426688,-5.318958 1.91797,-9.507374 1.91797,-9.507374 -0.106752,-1.570973 -1.409788,-2.792142 -2.984376,-2.796876 z"/>
 <rect style="opacity:0.2" width="30" height="26" x="-37" y="-45" rx="12.501" ry="13" transform="matrix(0,-1,-1,0,0,0)"/>
 <path style="fill:#503694;fill-rule:evenodd" d="m 50.003906,20.941844 c -1.787259,-0.0054 -3.182826,1.543241 -2.992188,3.320312 0,0 0.280978,2.810708 -1.398436,6.49175 C 43.933866,34.434948 40.868282,38 32,38 23.13172,38 20.066134,34.434948 18.386718,30.753906 c -1.679415,-3.681042 -1.398437,-6.49175 -1.398437,-6.49175 0.184356,-1.80114 -1.256528,-3.353989 -3.066406,-3.304687 -1.540329,0.04223 -2.798235,1.244413 -2.910156,2.781251 0,0 -0.508719,4.188416 1.917968,9.507374 C 15.118413,38.043472 20.175652,42.922698 29,43.835938 L 29,52 18,52 c -1.656855,0 -3,1.343146 -3,3 0,1.656854 1.343145,3 3,3 l 28,0 c 1.656854,0 3,-1.343146 3,-3 0,-1.656854 -1.343146,-3 -3,-3 l -11,0 0,-8.164062 c 8.824348,-0.91324 13.881586,-5.792466 16.070312,-10.589844 2.426688,-5.318958 1.91797,-9.507374 1.91797,-9.507374 -0.106752,-1.570973 -1.409788,-2.792142 -2.984376,-2.796876 z"/>
 <rect style="fill:#75a3ff" width="30" height="26" x="-36" y="-45" rx="12.501" ry="13" transform="matrix(0,-1,-1,0,0,0)"/>
 <path style="opacity:0.1;fill:#ffffff" d="M 32,6 C 24.798,6 19,11.574654 19,18.5 l 0,1 C 19,12.574654 24.798,7 32,7 c 7.202,0 13,5.574654 13,12.5 l 0,-1 C 45,11.574654 39.202,6 32,6 Z"/>
 <path style="opacity:0.1;fill:#ffffff;fill-rule:evenodd" d="M 50.003906 20.941406 C 48.216647 20.936006 46.821081 22.484648 47.011719 24.261719 C 47.011719 24.261719 47.016389 24.441061 47.021484 24.5625 C 47.20701 23.098305 48.456975 21.936732 50.003906 21.941406 C 51.578494 21.94614 52.881529 23.167308 52.988281 24.738281 C 52.988281 24.738281 53.008369 25.018148 53.021484 25.337891 C 53.059451 24.325367 52.988281 23.738281 52.988281 23.738281 C 52.881529 22.167308 51.578494 20.94614 50.003906 20.941406 z M 13.921875 20.957031 C 12.381546 20.999261 11.12364 22.201443 11.011719 23.738281 C 11.011719 23.738281 10.94055 24.325367 10.978516 25.337891 C 10.991631 25.018148 11.011719 24.738281 11.011719 24.738281 C 11.12364 23.201443 12.381546 21.999261 13.921875 21.957031 C 15.494119 21.914203 16.784779 23.082574 16.976562 24.570312 C 16.981716 24.442617 16.988281 24.261719 16.988281 24.261719 C 17.172637 22.460579 15.731753 20.907729 13.921875 20.957031 z M 16.986328 25.009766 C 16.984795 25.094416 16.997076 25.175791 16.988281 25.261719 C 16.988281 25.261719 16.707304 28.072864 18.386719 31.753906 C 20.066135 35.434948 23.13172 39 32 39 C 40.868282 39 43.933865 35.434948 45.613281 31.753906 C 47.292695 28.072864 47.011719 25.261719 47.011719 25.261719 C 47.003371 25.183905 47.014084 25.110029 47.011719 25.033203 C 46.988523 26.091457 46.788871 28.177177 45.613281 30.753906 C 43.933865 34.434948 40.868282 38 32 38 C 23.13172 38 20.066135 34.434948 18.386719 30.753906 C 17.203922 28.161382 17.007329 26.061011 16.986328 25.009766 z M 18 52 C 16.343145 52 15 53.343146 15 55 C 15 55.171057 15.023281 55.336764 15.050781 55.5 C 15.289646 54.08213 16.514202 53 18 53 L 29 53 L 29 52 L 18 52 z M 35 52 L 35 53 L 46 53 C 47.485797 53 48.710354 54.08213 48.949219 55.5 C 48.976719 55.336764 49 55.171057 49 55 C 49 53.343146 47.656854 52 46 52 L 35 52 z"/>
</svg>
